dist/assets/images/icons/empty-blog.svg

<svg width="100" height="100" fill="none" xmlns="http://www.w3.org/2000/svg"><path d="M18 26H2v62c0 5.514 4.486 10 10 10h76c5.514 0 10-4.486 10-10V2H18v24zM6 88V30h12v58c0 3.308-2.692 6-6 6s-6-2.692-6-6zM22 6h72v82c0 3.308-2.692 6-6 6H19.996c.06-.078.102-.168.158-.248.114-.162.214-.332.318-.502a9.773 9.773 0 00.826-1.64c.15-.388.27-.786.372-1.196.046-.188.104-.368.14-.56.116-.602.19-1.218.19-1.854V6z" fill="silver"/><path d="M86 16H30v4h56v-4zm-8 10H38v4h40v-4zm8 16H62v4h24v-4zm0 10H62v4h24v-4zM54 42H30v24h24V42zm-4 20H34V46h16v16zm36 0H62v4h24v-4zM54 72H30v4h24v-4zm32 0H62v4h24v-4zM54 82H30v4h24v-4zm32 0H62v4h24v-4z" fill="silver"/></svg>

<svg width="100" height="100" viewBox="0 0 100 100" fill="none" xmlns="http://www.w3.org/2000/svg">
<path d="M18 26H2V88C2 93.514 6.486 98 12 98H88C93.514 98 98 93.514 98 88V2H18V26ZM6 88V30H18V88C18 91.308 15.308 94 12 94C8.692 94 6 91.308 6 88ZM22 6H94V88C94 91.308 91.308 94 88 94H19.996C20.056 93.922 20.098 93.832 20.154 93.752C20.268 93.59 20.368 93.42 20.472 93.25C20.684 92.91 20.876 92.56 21.046 92.194C21.136 92.002 21.222 91.808 21.298 91.61C21.448 91.222 21.568 90.824 21.67 90.414C21.716 90.226 21.774 90.046 21.81 89.854C21.926 89.252 22 88.636 22 88V26V6Z" fill="#C0C0C0"/>
<path d="M86 16H30V20H86V16Z" fill="#C0C0C0"/>
<path d="M78 26H38V30H78V26Z" fill="#C0C0C0"/>
<path d="M86 42H62V46H86V42Z" fill="#C0C0C0"/>
<path d="M86 52H62V56H86V52Z" fill="#C0C0C0"/>
<path d="M54 42H30V66H54V42ZM50 62H34V46H50V62Z" fill="#C0C0C0"/>
<path d="M86 62H62V66H86V62Z" fill="#C0C0C0"/>
<path d="M54 72H30V76H54V72Z" fill="#C0C0C0"/>
<path d="M86 72H62V76H86V72Z" fill="#C0C0C0"/>
<path d="M54 82H30V86H54V82Z" fill="#C0C0C0"/>
<path d="M86 82H62V86H86V82Z" fill="#C0C0C0"/>
</svg>
